X:1
T:Title
%%score 1 2 3
L:1/8
Q:1/4=120
M:4/4
K:C
V:1 treble nm="Grand Piano"
V:2 bass nm="Grand Piano, Melody"
V:3 bass nm="Grand Piano"
V:1
 B4 G2 G2 | A2 G2 B4 | B2 e2 d3 B | G2 A2 B4 | B4 G2 G2 | A2 G2 B4 | B2 e2 d3 B | G2 A2 B4 | %8
 e4 B2 B2 | d2 B2 d4 | d2 e2 B3 d | e2 d2 B4 | d4 B3 A | G2 A2 B4 | B2 e2 d3 B | G2 A2 B4 |] %16
V:2
 G,4 B,2 B,2 | A,2 G,2 E,4 | G,2 G,2 A,3 B, | G,2 E,2 G,4 | G,4 B,2 B,2 | A,2 G,2 E,4 | %6
 G,2 G,2 A,3 B, | G,2 E,2 G,4 | B,4[K:treble] D2 B,2 | D2 E2 G4 | B2 G2 E3 D | B,2 D2 E4 | %12
 G4 D3 E | B,2 A,2 G,4 | E,2 G,2 A,3 B, | G,2 E,2 G,4 |] %16
V:3
 G,4 E,2 E,2 | D,2 E,2 G,4 | E,2 E,2 D,3 B,, | D,2 D,2 [G,,G,]4 | G,4 E,2 E,2 | D,2 E,2 G,4 | %6
 E,2 E,2 D,3 B,, | D,2 D,2 [G,,G,]4 | E,4 D,2 E,2 | G,2 E,2 G,4 | G,2 G,2 E,3 D, | %11
 [B,,G,]2 [B,,B,]2 E,4 | G,4 D,3 D, | E,2 E,2 G,4 | G,2 E,2 D,3 B,, | D,2 D,2 [G,,G,]4 |] %16

